server/website/public/icons/base/slides.svg

<svg width="48" height="48" viewBox="0 0 48 48" fill="none" xmlns="http://www.w3.org/2000/svg">
<g clip-path="url(#clip0_1391_19831)">
<path d="M26.4 43.2V48H21.6V43.2H2.4C1.76348 43.2 1.15303 42.9471 0.702944 42.4971C0.252856 42.047 0 41.4365 0 40.8V7.2H48V40.8C48 41.4365 47.7471 42.047 47.2971 42.4971C46.847 42.9471 46.2365 43.2 45.6 43.2H26.4ZM14.4 16.8C12.976 16.8 11.5839 17.2223 10.3999 18.0134C9.21586 18.8046 8.29302 19.9291 7.74807 21.2447C7.20312 22.5603 7.06053 24.008 7.33835 25.4047C7.61616 26.8013 8.30189 28.0842 9.30883 29.0912C10.3158 30.0981 11.5987 30.7838 12.9954 31.0617C14.392 31.3395 15.8397 31.1969 17.1553 30.6519C18.4709 30.107 19.5954 29.1841 20.3866 28.0001C21.1777 26.8161 21.6 25.424 21.6 24H14.4V16.8ZM26.4 16.8V21.6H40.8V16.8H26.4ZM26.4 26.4V31.2H40.8V26.4H26.4ZM0 0H48V4.8H0V0Z" fill="black"/>
</g>
<defs>
<clipPath id="clip0_1391_19831">
<rect width="48" height="48" fill="white"/>
</clipPath>
</defs>
</svg>

<svg width="48" height="48" fill="none" xmlns="http://www.w3.org/2000/svg"><g clip-path="url(#prefix__clip0_1391_19831)"><path d="M26.4 43.2V48h-4.8v-4.8H2.4A2.4 2.4 0 010 40.8V7.2h48v33.6a2.4 2.4 0 01-2.4 2.4H26.4zm-12-26.4a7.2 7.2 0 107.2 7.2h-7.2v-7.2zm12 0v4.8h14.4v-4.8H26.4zm0 9.6v4.8h14.4v-4.8H26.4zM0 0h48v4.8H0V0z" fill="#000"/></g><defs><clipPath id="prefix__clip0_1391_19831"><path fill="#fff" d="M0 0h48v48H0z"/></clipPath></defs></svg>
